icons/shield-lock-24.svg

<svg xmlns="http://www.w3.org/2000/svg" width="24" height="24" viewBox="0 0 24 24"><path d="M11.46 1.137a1.748 1.748 0 011.08 0l8.25 2.675A1.75 1.75 0 0122 5.476V10.5c0 6.19-3.77 10.705-9.401 12.83a1.704 1.704 0 01-1.198 0C5.771 21.204 2 16.69 2 10.5V5.476c0-.76.49-1.43 1.21-1.664zm.617 1.426a.253.253 0 00-.154 0L3.673 5.24a.25.25 0 00-.173.237V10.5c0 5.461 3.28 9.483 8.43 11.426a.199.199 0 00.14 0c5.15-1.943 8.43-5.965 8.43-11.426V5.476a.25.25 0 00-.173-.237zM13 12.232V15a1 1 0 01-2 0v-2.768a2 2 0 112 0z"/></svg>

<svg xmlns="http://www.w3.org/2000/svg" width="24" height="24" viewBox="0 0 24 24">
  <defs/>
  <path d="M11.46,1.137 C11.811,1.023 12.189,1.023 12.54,1.137 L20.79,3.812 C21.511,4.046 22,4.718 22,5.476 L22,10.5 C22,16.69 18.23,21.205 12.599,23.33 C12.213,23.475 11.787,23.475 11.401,23.33 C5.771,21.204 2,16.69 2,10.5 L2,5.476 C2,4.716 2.49,4.046 3.21,3.812 Z M12.077,2.563 C12.027,2.547 11.973,2.547 11.923,2.563 L3.673,5.24 C3.57,5.273 3.5,5.369 3.5,5.477 L3.5,10.5 C3.5,15.961 6.78,19.983 11.93,21.926 C11.975,21.943 12.025,21.943 12.07,21.926 C17.22,19.983 20.5,15.961 20.5,10.5 L20.5,5.476 C20.5,5.368 20.43,5.272 20.327,5.239 Z M13,12.232 L13,15 C13,15.552 12.552,16 12,16 C11.448,16 11,15.552 11,15 L11,12.232 C10.216,11.779 9.834,10.857 10.068,9.982 C10.303,9.108 11.095,8.5 12,8.5 C12.905,8.5 13.697,9.108 13.932,9.982 C14.166,10.857 13.784,11.779 13,12.232 Z"/>
</svg>
